Adwaita++/apps/scalable/xfburn.svg

<svg enable-background="new" height="128" viewBox="0 0 128 128" width="128" xmlns="http://www.w3.org/2000/svg">
  <path d="m63.923816 4.1523653c-33.197789 0-59.923816 26.7260207-59.923816 59.9238237 0 33.197792 26.726027 59.923811 59.923816 59.923811 33.197795 0 59.923814-26.726019 59.923814-59.923811 0-33.197803-26.726019-59.9238237-59.923814-59.9238237zm0 34.2421837a25.681636 25.681636 0 0 1 25.681632 25.68164 25.681636 25.681636 0 0 1 -25.681632 25.68164 25.681636 25.681636 0 0 1 -25.681633-25.68164 25.681636 25.681636 0 0 1 25.681633-25.68164z" opacity=".2"/>
  <path d="m63.923842 30.821767a32.102043 32.102041 0 0 0 -32.102046 32.102041 32.102043 32.102041 0 0 0 32.102046 32.102043 32.102043 32.102041 0 0 0 32.102039-32.102043 32.102043 32.102041 0 0 0 -32.102039-32.102041zm0 19.261224c7.091984 0 12.840813 5.748835 12.840813 12.840817 0 7.091983-5.748829 12.840818-12.840813 12.840818-7.091985 0-12.840819-5.748835-12.840819-12.840818 0-7.091982 5.748834-12.840817 12.840819-12.840817z" fill="#848484"/>
  <path d="m63.923842 2.9999958c-33.197791 0-59.923817 26.7260202-59.923817 59.9238122 0 33.197793 26.726026 59.923812 59.923817 59.923812 33.197789 0 59.923818-26.726019 59.923818-59.923812 0-33.197792-26.726029-59.9238122-59.923818-59.9238122zm0 34.2421792a25.681636 25.681633 0 0 1 25.681632 25.681633 25.681636 25.681633 0 0 1 -25.681632 25.681635 25.681636 25.681633 0 0 1 -25.681635-25.681635 25.681636 25.681633 0 0 1 25.681635-25.681633z" fill="#e4e4e4"/>
</svg>

<svg xmlns="http://www.w3.org/2000/svg" xmlns:xlink="http://www.w3.org/1999/xlink" style="enable-background:new" width="128" height="128" version="1.0" viewBox="0 0 128 128">
 <title id="title4162">
  Adwaita Icon Template
 </title>
 <defs>
  <linearGradient id="linearGradient950">
   <stop style="stop-color:#9a9996" id="stop946" offset="0"/>
   <stop style="stop-color:#77767b" id="stop948" offset="1"/>
  </linearGradient>
  <linearGradient id="linearGradient1001" x1="1660.857" x2="1662.99" y1="806.297" y2="812.882" gradientTransform="matrix(1.8293937,-0.81599442,0.81599442,1.8293937,-3645.9624,100.02949)" gradientUnits="userSpaceOnUse" xlink:href="#linearGradient950"/>
 </defs>
 <path style="opacity:0.2" d="M 63.923816,4.1523653 C 30.726027,4.1523653 4,30.878386 4,64.076189 4,97.273981 30.726027,124 63.923816,124 97.121611,124 123.84763,97.273981 123.84763,64.076189 123.84763,30.878386 97.121611,4.1523653 63.923816,4.1523653 Z m 0,34.2421837 a 25.681636,25.681636 0 0 1 25.681632,25.68164 25.681636,25.681636 0 0 1 -25.681632,25.68164 25.681636,25.681636 0 0 1 -25.681633,-25.68164 25.681636,25.681636 0 0 1 25.681633,-25.68164 z"/>
 <path style="fill:#848484" d="M 63.923842,30.821767 A 32.102043,32.102041 0 0 0 31.821796,62.923808 32.102043,32.102041 0 0 0 63.923842,95.025851 32.102043,32.102041 0 0 0 96.025881,62.923808 32.102043,32.102041 0 0 0 63.923842,30.821767 Z m 0,19.261224 c 7.091984,0 12.840813,5.748835 12.840813,12.840817 0,7.091983 -5.748829,12.840818 -12.840813,12.840818 -7.091985,0 -12.840819,-5.748835 -12.840819,-12.840818 0,-7.091982 5.748834,-12.840817 12.840819,-12.840817 z"/>
 <path style="fill:#e4e4e4" d="m 63.923842,2.9999958 c -33.197791,0 -59.923817,26.7260202 -59.923817,59.9238122 0,33.197793 26.726026,59.923812 59.923817,59.923812 33.197789,0 59.923818,-26.726019 59.923818,-59.923812 0,-33.197792 -26.726029,-59.9238122 -59.923818,-59.9238122 z m 0,34.2421792 A 25.681636,25.681633 0 0 1 89.605474,62.923808 25.681636,25.681633 0 0 1 63.923842,88.605443 25.681636,25.681633 0 0 1 38.242207,62.923808 25.681636,25.681633 0 0 1 63.923842,37.242175 Z"/>
</svg>
